assets/images/download.svg

<svg width="42" height="42" viewBox="0 0 42 42" fill="none" xmlns="http://www.w3.org/2000/svg">
<circle cx="21" cy="21" r="20.5" stroke="#0029FF"/>
<path d="M21.5 13C21.5 12.7239 21.2761 12.5 21 12.5C20.7239 12.5 20.5 12.7239 20.5 13L21.5 13ZM20.6464 29.3536C20.8417 29.5488 21.1583 29.5488 21.3536 29.3536L24.5355 26.1716C24.7308 25.9763 24.7308 25.6597 24.5355 25.4645C24.3403 25.2692 24.0237 25.2692 23.8284 25.4645L21 28.2929L18.1716 25.4645C17.9763 25.2692 17.6597 25.2692 17.4645 25.4645C17.2692 25.6597 17.2692 25.9763 17.4645 26.1716L20.6464 29.3536ZM20.5 13L20.5 29L21.5 29L21.5 13L20.5 13Z" fill="#0029FF"/>
</svg>

<svg width="42" height="42" fill="none" xmlns="http://www.w3.org/2000/svg"><circle cx="21" cy="21" r="20.5" stroke="#0029FF"/><path d="M21.5 13a.5.5 0 00-1 0h1zm-.854 16.354a.5.5 0 00.708 0l3.181-3.182a.5.5 0 10-.707-.707L21 28.293l-2.828-2.828a.5.5 0 10-.707.707l3.181 3.182zM20.5 13v16h1V13h-1z" fill="#0029FF"/></svg>
